; HEADER_BLOCK_START
; generated by OrcaSlicer 2.3.0 on 2025-04-06 at 02:14:43
; total layer number: 50
;_GP_TOTAL_LAYER_NUMBER_PLACEHOLDER
; filament_density: 1.27
; filament_diameter: 1.75
; max_z_height: 10.00
; HEADER_BLOCK_END

; THUMBNAIL_BLOCK_START

;
; THUMBNAIL_BLOCK_END







; external perimeters extrusion width = 0.40mm
; perimeters extrusion width = 0.45mm
; infill extrusion width = 0.45mm
; solid infill extrusion width = 0.45mm
; top infill extrusion width = 0.38mm
; support material extrusion width = 0.38mm
; first layer extrusion width = 0.42mm

; EXECUTABLE_BLOCK_START
EXCLUDE_OBJECT_DEFINE NAME=model.stl_id_0_copy_0 CENTER=160,160 POLYGON=[[67.5,63],[67.526,62.0056],[67.6041,61.014],[67.7339,60.0277],[67.9152,59.0497],[68.1474,58.0824],[68.4299,57.1287],[68.762,56.191],[69.1426,55.272],[69.5709,54.3742],[70.0455,53.5],[70.5653,52.6519],[71.1287,51.8321],[71.7342,51.0429],[72.3803,50.2865],[73.065,49.565],[73.7865,48.8802],[74.5429,48.2342],[75.3321,47.6287],[76.1519,47.0653],[77,46.5455],[77.8742,46.0709],[78.772,45.6426],[79.691,45.262],[80.6287,44.9299],[81.5824,44.6474],[82.5497,44.4152],[83.5277,44.2339],[84.514,44.1041],[85.5056,44.026],[86.5,44],[233.5,44],[234.494,44.026],[235.486,44.1041],[236.472,44.2339],[237.45,44.4152],[238.418,44.6474],[239.371,44.9299],[240.309,45.262],[241.228,45.6426],[242.126,46.0709],[243,46.5455],[243.848,47.0653],[244.668,47.6287],[245.457,48.2342],[246.213,48.8802],[246.935,49.565],[247.62,50.2865],[248.266,51.0429],[248.871,51.8321],[249.435,52.6519],[249.954,53.5],[250.429,54.3742],[250.857,55.272],[251.238,56.191],[251.57,57.1287],[251.853,58.0824],[252.085,59.0497],[252.266,60.0277],[252.396,61.014],[252.474,62.0056],[252.5,63],[252.5,257],[252.474,257.994],[252.396,258.986],[252.266,259.972],[252.085,260.95],[251.853,261.918],[251.57,262.871],[251.238,263.809],[250.857,264.728],[250.429,265.626],[249.954,266.5],[249.435,267.348],[248.871,268.168],[248.266,268.957],[247.62,269.713],[246.935,270.435],[246.213,271.12],[245.457,271.766],[244.668,272.371],[243.848,272.935],[243,273.454],[242.126,273.929],[241.228,274.357],[240.309,274.738],[239.371,275.07],[238.418,275.353],[237.45,275.585],[236.472,275.766],[235.486,275.896],[234.494,275.974],[233.5,276],[86.5,276],[85.5056,275.974],[84.514,275.896],[83.5277,275.766],[82.5497,275.585],[81.5824,275.353],[80.6287,275.07],[79.691,274.738],[78.772,274.357],[77.8742,273.929],[77,273.454],[76.1519,272.935],[75.3321,272.371],[74.5429,271.766],[73.7865,271.12],[73.065,270.435],[72.3803,269.713],[71.7342,268.957],[71.1287,268.168],[70.5653,267.348],[70.0455,266.5],[69.5709,265.626],[69.1426,264.728],[68.762,263.809],[68.4299,262.871],[68.1474,261.918],[67.9152,260.95],[67.7339,259.972],[67.6041,258.986],[67.526,257.994],[67.5,257],[67.5,63]]
M73 P0 R54
M106 S0
M106 P2 S0
;TYPE:Custom
;ELEGOO NEPTUNE 4 PLUS
M220 S100 ;Set the feed speed to 100%
M221 S100 ;Set the flow rate to 100%
M104 S140
M190 S75
G90
G28 ;home
G1 Z10 F300
G1 X115 Y0.5 F6000
G1 Z0 F300
M109 S230
G92 E0 ;Reset Extruder
G1 X115 Y0.5 Z0.4 F300 ;Move to start position
G1 X215.0 E30 F400 ;Draw the first line
G1 Z0.6 F120.0 ;Move to side a little
G1 X210 F3000
G92 E0 ;Reset Extruder
G90
G21
M83 ; use relative distances for extrusion
; Filament gcode
M106 S0
M106 P2 S0
;LAYER_CHANGE
;Z:0.2
;HEIGHT:0.2
;BEFORE_LAYER_CHANGE
G92 E0
;0.2


G1 E-.8 F2700
;AFTER_LAYER_CHANGE
;0.2
;_SET_FAN_SPEED_CHANGING_LAYER
SET_VELOCITY_LIMIT ACCEL=1000 ACCEL_TO_DECEL=500
SET_VELOCITY_LIMIT SQUARE_CORNER_VELOCITY=7
G1 Z.6 F21000
G1 X67.114 Y57.447
G1 Z.6
G1 Z.2
G1 E.8 F2700
;TYPE:Skirt
;WIDTH:0.42
G1 F3000
G1 X67.29 Y56.791 E.02095
G1 X68.07 Y54.76 E.06706
G1 X69.001 Y52.933 E.06323
G1 X69.586 Y51.979 E.0345
G1 X70.186 Y51.109 E.03258
G1 X71.476 Y49.515 E.06323
G1 X72.968 Y48.018 E.06514
G1 X74.609 Y46.686 E.06514
G1 X76.433 Y45.501 E.06706
G1 X78.26 Y44.57 E.06323
G1 X79.236 Y44.164 E.03258
G1 X81.245 Y43.508 E.06514
G1 X83.311 Y43.065 E.06514
G1 X85.412 Y42.841 E.06514
G1 X233.51 Y42.812 E4.56548
G1 X235.579 Y42.919 E.06388
G1 X237.667 Y43.247 E.06514
G1 X238.755 Y43.508 E.0345
G1 X240.764 Y44.164 E.06514
G1 X242.693 Y45.026 E.06514
G1 X244.478 Y46.058 E.06355
G1 X246.181 Y47.291 E.06482
G1 X247.032 Y48.018 E.0345
G1 X248.482 Y49.468 E.06323
G1 X249.814 Y51.109 E.06514
G1 X250.968 Y52.878 E.06512
G1 X251.93 Y54.76 E.06516
G1 X252.358 Y55.794 E.0345
G1 X253.008 Y57.805 E.06514
G1 X253.444 Y59.873 E.06514
G1 X253.659 Y61.912 E.06323
G1 X253.688 Y257.031 E6.01503
G1 X253.581 Y259.079 E.06323
M73 P0 R53
G1 X253.444 Y260.127 E.03258
G1 X253.241 Y261.228 E.0345
G1 X252.71 Y263.209 E.06323
G1 X251.93 Y265.24 E.06706
G1 X250.999 Y267.067 E.06323
G1 X250.414 Y268.021 E.0345
G1 X249.814 Y268.891 E.03258
G1 X248.524 Y270.485 E.06323
G1 X247.032 Y271.982 E.06514
G1 X245.391 Y273.314 E.06514
G1 X243.567 Y274.499 E.06706
G1 X241.74 Y275.43 E.06323
G1 X240.764 Y275.836 E.03258
G1 X238.755 Y276.492 E.06514
G1 X236.689 Y276.935 E.06514
G1 X234.525 Y277.162 E.06706
G1 X86.469 Y277.188 E4.56422
G1 X84.421 Y277.081 E.06323
M73 P1 R53
G1 X83.373 Y276.944 E.03258
G1 X82.272 Y276.741 E.0345
G1 X80.291 Y276.21 E.06323
G1 X78.26 Y275.43 E.06706
G1 X76.433 Y274.499 E.06323
G1 X75.479 Y273.914 E.0345
G1 X74.609 Y273.314 E.03258
G1 X73.015 Y272.024 E.06323
G1 X71.518 Y270.532 E.06514
G1 X70.186 Y268.891 E.06514
G1 X69.001 Y267.067 E.06706
G1 X68.07 Y265.24 E.06323
G1 X67.664 Y264.264 E.03258
G1 X67.008 Y262.255 E.06514
G1 X66.556 Y260.127 E.06706
G1 X66.338 Y258.025 E.06514
G1 X66.312 Y62.969 E6.01312
G1 X66.419 Y60.921 E.06323
G1 X66.556 Y59.873 E.03258
G1 X66.759 Y58.772 E.0345
G1 X67.104 Y57.486 E.04105
; printing object model.stl id:0 copy 0
G1 E-.68 F2700
;WIPE_START
G1 F3000
G1 X67.29 Y56.791 E-.08633
G1 X67.391 Y56.529 E-.03367
;WIPE_END
EXCLUDE_OBJECT_START NAME=model.stl_id_0_copy_0
G1 Z.6 F21000
G1 X245.52 Y179.71 Z.6
G1 Z.2
G1 E.8 F2700
;TYPE:Inner wall
;WIDTH:0.419999
G1 F3000
G1 X245.562 Y179.827 E.00384
G1 X251.059 Y189.348 E.3389
G1 X251.3 Y189.819 E.01632
G1 X251.436 Y190.357 E.01709
G1 X251.436 Y256.998 E2.05439
G1 X251.405 Y258.012 E.03127
G1 X251.328 Y258.948 E.02895
G1 X251.201 Y259.878 E.02894
G1 X251.026 Y260.801 E.02894
G1 X250.803 Y261.714 E.02897
G1 X250.53 Y262.619 E.02916
G1 X250.216 Y263.496 E.0287
G1 X249.853 Y264.361 E.02894
G1 X249.445 Y265.207 E.02895
G1 X248.994 Y266.031 E.02894
G1 X248.5 Y266.829 E.02894
G1 X247.965 Y267.601 E.02898
G1 X247.386 Y268.349 E.02916
G1 X246.778 Y269.055 E.0287
G1 X246.129 Y269.733 E.02895
G1 X245.445 Y270.376 E.02894
G1 X244.729 Y270.983 E.02894
G1 X243.981 Y271.552 E.02894
G1 X243.206 Y272.08 E.02894
G1 X242.403 Y272.568 E.02894
G1 X241.576 Y273.012 E.02895
G1 X240.727 Y273.413 E.02894
G1 X239.866 Y273.766 E.02867
G1 X238.971 Y274.079 E.02923
G1 X238.07 Y274.342 E.02893
G1 X237.157 Y274.557 E.02894
G1 X236.233 Y274.724 E.02894
G1 X235.301 Y274.843 E.02895
G1 X234.365 Y274.913 E.02894
G1 X233.474 Y274.936 E.02748
G1 X86.502 Y274.936 E4.53077
G1 X85.488 Y274.905 E.03127
G1 X84.552 Y274.828 E.02895
G1 X83.622 Y274.701 E.02894
G1 X82.699 Y274.526 E.02894
G1 X81.787 Y274.303 E.02894
G1 X80.888 Y274.033 E.02895
G1 X80.004 Y273.716 E.02894
G1 X79.139 Y273.353 E.02894
G1 X78.292 Y272.945 E.02896
G1 X77.469 Y272.494 E.02893
G1 X76.671 Y272 E.02894
G1 X75.899 Y271.465 E.02895
G1 X75.157 Y270.891 E.02894
G1 X74.445 Y270.277 E.02897
G1 X73.762 Y269.623 E.02916
G1 X73.124 Y268.945 E.0287
G1 X72.517 Y268.229 E.02894
G1 X71.948 Y267.482 E.02894
G1 X71.42 Y266.706 E.02893
G1 X70.932 Y265.903 E.02896
G1 X70.488 Y265.076 E.02895
G1 X70.087 Y264.227 E.02894
G1 X69.731 Y263.358 E.02894
G1 X69.421 Y262.472 E.02894
G1 X69.158 Y261.57 E.02894
G1 X68.943 Y260.657 E.02894
G1 X68.776 Y259.733 E.02894
G1 X68.657 Y258.802 E.02893
G1 X68.587 Y257.865 E.02896
G1 X68.564 Y256.974 E.02748
G1 X68.564 Y190.453 E2.05067
G1 X68.7 Y189.819 E.01998
G1 X68.941 Y189.348 E.01632
G1 X74.5 Y179.72 E.34271
G1 X74.564 Y179.356 E.0114
G1 X74.564 Y140.509 E1.19755
G1 X74.438 Y140.173 E.01108
G1 X68.941 Y130.652 E.3389
G1 X68.7 Y130.181 E.01632
G1 X68.589 Y129.663 E.01632
G1 X68.564 Y129.245 E.01292
G1 X68.564 Y63.002 E2.04211
G1 X68.595 Y61.988 E.03127
G1 X68.672 Y61.052 E.02895
G1 X68.799 Y60.122 E.02894
G1 X68.974 Y59.199 E.02894
G1 X69.197 Y58.286 E.02897
G1 X69.47 Y57.381 E.02916
G1 X69.784 Y56.504 E.0287
G1 X70.147 Y55.639 E.02894
G1 X70.555 Y54.793 E.02895
G1 X71.006 Y53.969 E.02894
G1 X71.5 Y53.171 E.02894
G1 X72.035 Y52.399 E.02898
G1 X72.614 Y51.651 E.02916
G1 X73.222 Y50.945 E.0287
G1 X73.871 Y50.267 E.02895
G1 X74.555 Y49.624 E.02894
G1 X75.271 Y49.017 E.02894
G1 X76.019 Y48.448 E.02894
G1 X76.794 Y47.92 E.02894
G1 X77.597 Y47.432 E.02894
G1 X78.424 Y46.988 E.02895
G1 X79.273 Y46.587 E.02894
G1 X80.134 Y46.234 E.02867
G1 X81.028 Y45.921 E.02922
G1 X81.93 Y45.658 E.02895
G1 X82.843 Y45.443 E.02894
G1 X83.767 Y45.276 E.02894
G1 X84.699 Y45.157 E.02895
G1 X85.635 Y45.087 E.02894
G1 X86.526 Y45.064 E.02748
G1 X233.507 Y45.064 E4.53104
G1 X234.512 Y45.095 E.03101
G1 X235.448 Y45.172 E.02895
G1 X236.378 Y45.299 E.02894
G1 X237.301 Y45.474 E.02894
G1 X238.213 Y45.697 E.02894
G1 X239.112 Y45.967 E.02895
G1 X239.996 Y46.284 E.02894
G1 X240.861 Y46.647 E.02894
G1 X241.707 Y47.055 E.02895
G1 X242.531 Y47.506 E.02896
G1 X243.329 Y48 E.02893
G1 X244.101 Y48.535 E.02895
G1 X244.843 Y49.109 E.02894
G1 X245.555 Y49.722 E.02894
G1 X246.233 Y50.371 E.02895
G1 X246.876 Y51.055 E.02894
G1 X247.483 Y51.771 E.02894
G1 X248.052 Y52.518 E.02894
G1 X248.58 Y53.294 E.02893
G1 X249.068 Y54.097 E.02896
G1 X249.512 Y54.924 E.02895
G1 X249.913 Y55.773 E.02894
G1 X250.269 Y56.642 E.02894
G1 X250.579 Y57.528 E.02894
G1 X250.842 Y58.43 E.02894
G1 X251.057 Y59.343 E.02894
G1 X251.224 Y60.267 E.02894
G1 X251.343 Y61.199 E.02895
G1 X251.413 Y62.135 E.02894
G1 X251.436 Y63.026 E.02748
G1 X251.436 Y129.547 E2.05067
G1 X251.3 Y130.181 E.01998
G1 X251.059 Y130.652 E.01632
G1 X245.5 Y140.28 E.34271
G1 X245.436 Y140.644 E.0114
G1 X245.436 Y179.48 E1.19721
G1 X245.506 Y179.673 E.00633
G1 X245.866 Y179.555 F21000
G1 F3000
G1 X245.889 Y179.639 E.00267
G1 X251.385 Y189.159 E.3389
G1 X251.709 Y189.821 E.0227
G1 X251.77 Y190.209 E.01212
G1 X251.813 Y190.278 E.00251
G1 X251.813 Y256.991 E2.05658
G1 X251.788 Y257.958 E.02983
G1 X251.712 Y258.914 E.02955
G1 X251.587 Y259.865 E.02955
G1 X251.413 Y260.807 E.02956
G1 X251.189 Y261.74 E.02956
G1 X250.916 Y262.659 E.02955
G1 X250.596 Y263.563 E.02955
G1 X250.229 Y264.448 E.02956
G1 X249.817 Y265.314 E.02955
G1 X249.359 Y266.156 E.02956
G1 X248.858 Y266.974 E.02956
G1 X248.315 Y267.764 E.02956
G1 X247.732 Y268.525 E.02955
G1 X247.109 Y269.254 E.02956
G1 X246.449 Y269.949 E.02956
G1 X245.754 Y270.609 E.02956
G1 X245.025 Y271.232 E.02955
G1 X244.264 Y271.815 E.02955
G1 X243.474 Y272.358 E.02956
G1 X242.656 Y272.859 E.02956
G1 X241.814 Y273.317 E.02956
G1 X240.948 Y273.729 E.02955
G1 X240.063 Y274.096 E.02956
G1 X239.159 Y274.416 E.02955
G1 X238.23 Y274.691 E.02986
G1 X237.307 Y274.912 E.02925
G1 X236.365 Y275.087 E.02956
G1 X235.414 Y275.212 E.02955
G1 X234.458 Y275.288 E.02955
G1 X233.491 Y275.313 E.02983
G1 X86.509 Y275.313 E4.53108
G1 X85.542 Y275.288 E.02983
G1 X84.586 Y275.212 E.02956
G1 X83.635 Y275.087 E.02955
G1 X82.693 Y274.912 E.02956
G1 X81.76 Y274.689 E.02956
G1 X80.841 Y274.416 E.02956
G1 X79.937 Y274.096 E.02955
G1 X79.052 Y273.729 E.02956
G1 X78.186 Y273.317 E.02955
G1 X77.335 Y272.854 E.02986
G1 X76.526 Y272.358 E.02925
G1 X75.736 Y271.815 E.02956
G1 X74.975 Y271.232 E.02956
G1 X74.246 Y270.609 E.02955
G1 X73.551 Y269.949 E.02956
G1 X72.891 Y269.254 E.02956
G1 X72.268 Y268.525 E.02955
G1 X71.685 Y267.764 E.02955
G1 X71.147 Y266.982 E.02926
G1 X70.641 Y266.156 E.02986
G1 X70.183 Y265.314 E.02955
G1 X69.771 Y264.448 E.02955
G1 X69.404 Y263.563 E.02956
G1 X69.084 Y262.659 E.02955
G1 X68.811 Y261.74 E.02956
G1 X68.588 Y260.807 E.02956
G1 X68.413 Y259.865 E.02956
G1 X68.289 Y258.924 E.02925
G1 X68.212 Y257.958 E.02986
G1 X68.187 Y256.991 E.02983
G1 X68.187 Y190.278 E2.05658
G1 X68.222 Y190.251 E.00137
G1 X68.291 Y189.821 E.01342
G1 X68.439 Y189.463 E.01195
G1 X74.111 Y179.639 E.3497
G1 X74.187 Y179.356 E.00902
G1 X74.187 Y140.644 E1.1934
G1 X74.111 Y140.361 E.00903
G1 X68.615 Y130.841 E.3389
G1 X68.291 Y130.179 E.0227
G1 X68.23 Y129.791 E.01212
G1 X68.187 Y129.722 E.00251
G1 X68.187 Y63.009 E2.05658
G1 X68.212 Y62.042 E.02983
G1 X68.288 Y61.086 E.02955
G1 X68.413 Y60.135 E.02955
G1 X68.588 Y59.193 E.02956
G1 X68.811 Y58.26 E.02956
G1 X69.084 Y57.341 E.02955
G1 X69.404 Y56.437 E.02955
G1 X69.771 Y55.552 E.02956
G1 X70.183 Y54.686 E.02955
G1 X70.641 Y53.844 E.02956
G1 X71.142 Y53.026 E.02956
G1 X71.685 Y52.236 E.02956
G1 X72.268 Y51.475 E.02955
G1 X72.891 Y50.746 E.02956
G1 X73.551 Y50.051 E.02956
G1 X74.246 Y49.391 E.02956
G1 X74.975 Y48.768 E.02955
G1 X75.736 Y48.185 E.02955
G1 X76.526 Y47.642 E.02956
G1 X77.344 Y47.141 E.02956
G1 X78.186 Y46.683 E.02956
G1 X79.052 Y46.271 E.02955
G1 X79.937 Y45.904 E.02956
G1 X80.841 Y45.584 E.02956
G1 X81.76 Y45.311 E.02955
G1 X82.693 Y45.088 E.02956
G1 X83.635 Y44.913 E.02956
M73 P2 R53
G1 X84.586 Y44.788 E.02955
G1 X85.542 Y44.712 E.02955
G1 X86.509 Y44.687 E.02983
G1 X233.501 Y44.687 E4.53139
G1 X234.458 Y44.712 E.02953
G1 X235.414 Y44.788 E.02956
G1 X236.365 Y44.913 E.02955
G1 X237.307 Y45.088 E.02956
G1 X238.24 Y45.311 E.02956
G1 X239.159 Y45.584 E.02956
G1 X240.063 Y45.904 E.02955
G1 X240.948 Y46.271 E.02956
G1 X241.814 Y46.683 E.02955
G1 X242.656 Y47.141 E.02955
G1 X243.482 Y47.647 E.02986
G1 X244.264 Y48.185 E.02926
G1 X245.025 Y48.768 E.02955
G1 X245.754 Y49.391 E.02955
G1 X246.449 Y50.051 E.02956
G1 X247.109 Y50.746 E.02956
G1 X247.732 Y51.475 E.02955
G1 X248.315 Y52.236 E.02955
G1 X248.853 Y53.018 E.02926
G1 X249.359 Y53.844 E.02986
G1 X249.817 Y54.686 E.02955
G1 X250.229 Y55.552 E.02955
G1 X250.596 Y56.437 E.02956
G1 X250.916 Y57.341 E.02955
G1 X251.189 Y58.26 E.02956
G1 X251.412 Y59.193 E.02956
G1 X251.587 Y60.135 E.02956
G1 X251.712 Y61.086 E.02955
G1 X251.788 Y62.042 E.02955
G1 X251.813 Y63.009 E.02983
G1 X251.813 Y129.722 E2.05658
G1 X251.778 Y129.749 E.00137
G1 X251.709 Y130.179 E.01342
G1 X251.561 Y130.537 E.01195
G1 X245.889 Y140.361 E.3497
G1 X245.813 Y140.644 E.00902
G1 X245.813 Y179.356 E1.1934
G1 X245.856 Y179.516 E.00512
G1 X246.206 Y179.416 F21000
;TYPE:Outer wall
G1 F3000
G1 X246.215 Y179.45 E.0011
G1 X251.844 Y189.199 E.34703
G1 X252.075 Y189.718 E.01749
G1 X252.142 Y190.151 E.01351
G1 X252.19 Y190.2 E.00211
G1 X252.19 Y256.996 E2.05915
G1 X252.164 Y257.978 E.03029
G1 X252.088 Y258.954 E.03016
G1 X251.96 Y259.924 E.03016
G1 X251.781 Y260.886 E.03017
G1 X251.553 Y261.837 E.03016
G1 X251.275 Y262.775 E.03016
G1 X250.949 Y263.698 E.03016
G1 X250.574 Y264.602 E.03017
G1 X250.153 Y265.485 E.03016
G1 X249.686 Y266.345 E.03016
G1 X249.175 Y267.179 E.03016
G1 X248.62 Y267.986 E.03017
G1 X248.025 Y268.762 E.03016
G1 X247.389 Y269.506 E.03016
G1 X246.716 Y270.216 E.03016
G1 X246.006 Y270.889 E.03017
G1 X245.262 Y271.525 E.03016
G1 X244.486 Y272.12 E.03016
G1 X243.679 Y272.675 E.03017
G1 X242.845 Y273.186 E.03016
G1 X241.985 Y273.653 E.03016
G1 X241.102 Y274.074 E.03016
G1 X240.198 Y274.449 E.03017
G1 X239.276 Y274.775 E.03016
G1 X238.328 Y275.055 E.03047
G1 X237.386 Y275.281 E.02986
G1 X236.424 Y275.46 E.03017
G1 X235.454 Y275.588 E.03016
G1 X234.478 Y275.664 E.03016
G1 X233.496 Y275.69 E.03029
G1 X86.504 Y275.69 E4.53139
G1 X85.522 Y275.664 E.03029
G1 X84.546 Y275.588 E.03016
G1 X83.576 Y275.46 E.03016
G1 X82.614 Y275.281 E.03017
G1 X81.663 Y275.053 E.03016
G1 X80.724 Y274.775 E.03016
G1 X79.802 Y274.449 E.03016
G1 X78.898 Y274.074 E.03017
G1 X78.015 Y273.653 E.03016
G1 X77.147 Y273.181 E.03047
G1 X76.321 Y272.675 E.02986
G1 X75.514 Y272.12 E.03017
G1 X74.738 Y271.525 E.03016
G1 X73.994 Y270.889 E.03016
G1 X73.284 Y270.216 E.03017
G1 X72.611 Y269.506 E.03017
G1 X71.975 Y268.762 E.03016
G1 X71.38 Y267.986 E.03016
G1 X70.831 Y267.187 E.02986
G1 X70.314 Y266.345 E.03047
G1 X69.847 Y265.485 E.03016
G1 X69.426 Y264.602 E.03016
G1 X69.051 Y263.698 E.03017
G1 X68.725 Y262.776 E.03016
